lib/svgs/linkedin.svg

<?xml version="1.0" encoding="UTF-8" standalone="no"?>
<svg width="20px" height="20px" viewBox="0 0 20 20" version="1.1" xmlns="http://www.w3.org/2000/svg" xmlns:xlink="http://www.w3.org/1999/xlink">
    <defs></defs>
    <g id="Icons" stroke="none" stroke-width="1" fill="none" fill-rule="evenodd">
        <g id="Web" transform="translate(-433.000000, -988.000000)" fill="#000000">
            <g id="brand/linkedin" transform="translate(433.000000, 988.000000)">
                <path d="M14.30865,7.35165641 C12.58005,7.35165641 11.81835,8.26781003 11.40825,8.89768396 L11.40825,8.92626796 L11.37885,8.92626796 C11.37885,8.92626796 11.37885,8.89768396 11.40825,8.89768396 L11.40825,7.55203753 L8.1855,7.55203753 C8.2149,8.43960715 8.1855,17 8.1855,17 L11.40825,17 L11.40825,11.7320434 C11.40825,11.4457637 11.40825,11.159484 11.49615,10.9591029 C11.73045,10.4151275 12.25785,9.81383758 13.16595,9.81383758 C14.30865,9.81383758 14.7774,10.6728232 14.7774,11.9611551 L14.7774,17 L18,17 L18,11.5889768 C18,8.69730284 16.41795,7.35165641 14.30865,7.35165641 L14.30865,7.35165641 L14.30865,7.35165641 M3.1758,17 L6.3984,17 L6.3984,7.55203753 L3.1758,7.55203753 L3.1758,17 L3.1758,17 M4.81635,3 C3.73245,3 3,3.7157725 3,4.63192612 C3,5.54807974 3.7032,6.26370566 4.7871,6.26370566 C5.92965,6.26370566 6.60345,5.54807974 6.60345,4.63192612 C6.60345,3.7157725 5.92965,3 4.81635,3 L4.81635,3 L4.81635,3" id="Shape"></path>
            </g>
        </g>
    </g>
</svg>

<svg xmlns="http://www.w3.org/2000/svg" viewBox="0 0 20 20">
    <path fill="#000" fill-rule="evenodd" d="M14.309 7.352c-1.729 0-2.49.916-2.9 1.546v.028h-.03s0-.028.03-.028V7.552H8.184c.03.888 0 9.448 0 9.448h3.223v-5.268c0-.286 0-.573.088-.773a1.791 1.791 0 0 1 1.67-1.145c1.143 0 1.611.859 1.611 2.147V17H18v-5.411c0-2.892-1.582-4.237-3.691-4.237M3.176 17h3.222V7.552H3.176V17m1.64-14C3.732 3 3 3.716 3 4.632c0 .916.703 1.632 1.787 1.632 1.143 0 1.816-.716 1.816-1.632C6.603 3.716 5.93 3 4.816 3"/>
</svg>
